X: 513
T: Cemilemin Gezdiği Dağlar...
C: Hüseyin Aktekin
O: Turkey
F: http://compmusic.upf.edu/node/140
N: gerdaniye--turku--aksak--cemilemin_gezdigi--
N: makam= gerdaniye
N: form= turku
N: usul= aksak = 9/8
M: 9/8
L: 1/16
K: C _2/4B ^3/4f  
Q: 1/4=234
%%MIDI tuningsystem comma53
.c2dd d2d2 e2d2 cdcd B2 | .c2 ddd2 d2e2 d2c2 B2c2  | 
w:  ARANAĞME  |   | 
.B2AA A2A2 A2AA A2A2 AA | .c2 ddd2 d2e2 d2cd cdB2  | 
w:   |  ARANAĞME  | 
.c2dd d2d2 e2d2 c2B2 c2 | .B2 AAA2 A2A2 AAA2 A2AA  | 
w:   |   | 
f2g2 g2g2 f2g2 g2g4 | f2 {g}f2f4g2 f2e2 {=f}e2d2  | \
w:  Ce mi le min  gez *  di ği   |  dağ *  *  lar  me *  şe  | 
d8 g2{a}ge e4 ee | 
w:  li  i *  ma *  nım    | 
.G2 AA.A2 A2G2 AAA2 A2AA  | f2g2 g2g2 f2g2 g2g4 | \
w:  SAZ  |  Ce mi le min  gez *  di ği   | 
f2 {g}f2f4g2 f2e2 {=f}e2d2  | 
w:  dağ *  *  lar  me *  şe  | 
d8 g2{a}ge e4 ee | .G2 AA.A2 A2G2 AAA2 A2AA  | \
w:  li  i *  ma *  nım    |  SAZ  | 
g3e e2{=f}ed d2fd cdcd B2 | 
w:  Hay di  üç  *  yıl  *  ol *  *  du   | 
cd d2d2 d2d=f edc2 B2cd  | BcBA A4 A2AA A2A2 AA | 
w:  Ce mi lem  ben den_ ay *  *  *  rı  *  da   |  dü *  şe *  *  li    | 
g3ee2 {=f}edd2 fdcd cdB2  | cdd2 d2d2 d=fed c2B2 cd | 
w:  Hay di  üç  *  yıl  *  ol *  *  du   |  Ce mi lem  ben den_ ay *  *  *  rı  *  da   | 
Bc BAA4A2 AAA2 A2AA  | c2dd d2d2 e2ed cdcd B2 | 
w:  dü *  şe *  *  li    |  Gay dı rı  gub bak  Ce mi *  lem  *  *  *  de   | 
c2 d2d2 d2e2 edc2 B2c2  | B3A A2A2 A2AA A2A2 AA | 
w:  na sıl  na sıl  e de *  lim  *  de   |  biz  *  bu  i şi    | 
c2 d2d2 d2e2 d2cd cdB2  | c2d2 d2d2 e2ed c2B2 c2 | 
w:  Ni kâ' mı zı  gıy *  sın   |  Ün nen  ge lin  ho *  *  ca   | 
B2 A2A2 A2A2 AAA2 A2AA  | .c2dd d2d2 e2d2 cdcd B2 | 
w:  Me mi *  *  *  şe    |  ARANAĞME  | 
.c2 ddd2 d2e2 d2c2 B2c2  | .B2AA A2A2 A2AA A2A2 AA | 
w:   |   | 
.c2 ddd2 d2e2 d2cd cdB2  | .c2dd d2d2 e2d2 c2B2 c2 | 
w:  ARANAĞME  |   | 
.B2 AAA2 A2A2 AAA2 A2AA  | fgg2 g2g2 f2g2 g2g4 | 
w:   |  Ce mi lem  sen  bu  yol *  lar dan   | 
f2 {g}f2f4g2 f2e2 {=f}e2d2  | d8 g2ge e4 ee | \
w:  geç *  *  tin  ge *  çe  |  li  i ma *  nım    | 
.G2 AA.A2 A2G2 AAA2 A2AA  | 
w:  SAZ  | 
fgg2 g2g2 f2g2 g2g4 | f2 {g}f2f4g2 f2e2 {=f}e2d2  | \
w:  Ce mi lem  sen  bu  yol *  lar dan   |  geç *  *  tin  ge *  çe  | 
d8 g2ge e4 ee | 
w:  li  i ma *  nım    | 
.G2 AA.A2 A2G2 AAA2 A2AA  | g3e e2ed e2ec cdcd B2 | 
w:  SAZ  |  Hay di  se nin  *  yü zün *  den   | 
ce d2d2 d2d=f edc2 B2c2  | {d}BcBA A4 A2AA A2A2 AA | 
w:  ol *  *  dum  *  gu *  *  *  ru  *  da   |  *  sev *  *  *  dâ lı    | 
g3ee2 ede2 eccd cdB2  | ced2 d2d2 d=fed c2B2 c2 | 
w:  Hay di  se nin  *  yü zün *  den   |  ol *  *  dum  *  gu *  *  *  ru  *  da   | 
{d}Bc BAA4A2 AAA2 A2AA  | c2dd d2d2 e2ed cdcd B2 | 
w:  *  sev *  *  *  dâ lı    |  Gay dı rı  gub bak  Ce mi *  lem  *  *  *  de   | 
c2 d2d2 d2e2 edc2 B2c2  | B3A A2A2 A2AA A2A2 AA | 
w:  na sıl  na sıl  e de *  lim  *  de   |  biz  *  bu  i şi    | 
c2 d2d2 d2e2 d2cd cdB2  | c2d2 d2d2 e2ed c2B2 c2 | 
w:  Ni kâ' mı zı  gıy *  sın   |  Ün nen  ge lin  ho *  *  ca   | 
B2 A2A2 A2A2 AAA2 A2AA  | |


